usr/share/icons/biglinux-icons-material/24/actions/quickopen-class.svg

<svg xmlns="http://www.w3.org/2000/svg" viewBox="0 0 24 24"><path d="m8 4-4 7h2v5l4-7H8V4zm7 0v2h-3v12h3v2h5v-5h-5v2h-2V7h2v2h5V4h-5z" style="fill:currentColor;fill-opacity:1;stroke:none;color:#dedede"/></svg>

<svg xmlns="http://www.w3.org/2000/svg" viewBox="0 0 24 24">
  <defs id="defs3051">
    <style type="text/css" id="current-color-scheme">
      .ColorScheme-Text {
        color:#dedede;
      }
      </style>
  </defs>
 <path style="fill:currentColor;fill-opacity:1;stroke:none" 
     d="M 8 4 L 4 11 L 6 11 L 6 16 L 10 9 L 8 9 L 8 4 z M 15 4 L 15 6 L 12 6 L 12 7 L 12 18 L 13 18 L 15 18 L 15 20 L 20 20 L 20 15 L 15 15 L 15 17 L 13 17 L 13 7 L 15 7 L 15 9 L 20 9 L 20 4 L 15 4 z "
     class="ColorScheme-Text"
     />
</svg>
